storage/app/icons/phosphoricons/light/scan-light.svg

<svg xmlns="http://www.w3.org/2000/svg" fill="currentColor" viewBox="0 0 256 256"><path d="M222 40v40a6 6 0 0 1-12 0V46h-34a6 6 0 0 1 0-12h40a6 6 0 0 1 6 6M80 210H46v-34a6 6 0 0 0-12 0v40a6 6 0 0 0 6 6h40a6 6 0 0 0 0-12m136-40a6 6 0 0 0-6 6v34h-34a6 6 0 0 0 0 12h40a6 6 0 0 0 6-6v-40a6 6 0 0 0-6-6M40 86a6 6 0 0 0 6-6V46h34a6 6 0 0 0 0-12H40a6 6 0 0 0-6 6v40a6 6 0 0 0 6 6m40-12h96a6 6 0 0 1 6 6v96a6 6 0 0 1-6 6H80a6 6 0 0 1-6-6V80a6 6 0 0 1 6-6m6 96h84V86H86Z"/></svg>

<svg xmlns="http://www.w3.org/2000/svg" viewBox="0 0 256 256" fill="currentColor"><path d="M222,40V80a6,6,0,0,1-12,0V46H176a6,6,0,0,1,0-12h40A6,6,0,0,1,222,40ZM80,210H46V176a6,6,0,0,0-12,0v40a6,6,0,0,0,6,6H80a6,6,0,0,0,0-12Zm136-40a6,6,0,0,0-6,6v34H176a6,6,0,0,0,0,12h40a6,6,0,0,0,6-6V176A6,6,0,0,0,216,170ZM40,86a6,6,0,0,0,6-6V46H80a6,6,0,0,0,0-12H40a6,6,0,0,0-6,6V80A6,6,0,0,0,40,86ZM80,74h96a6,6,0,0,1,6,6v96a6,6,0,0,1-6,6H80a6,6,0,0,1-6-6V80A6,6,0,0,1,80,74Zm6,96h84V86H86Z"/></svg>
